X:1

T:Devil’s Dream

M:C|

L:1/8

K:A

|: eg | agae agae | agae fedc | dfBf dfBf | dfBf gfeg |

agae agae | agae fedc | Bcde gfed | cABc A6 :|

|: ed | ceAe ceAe | ceAe fedc | dfBf dfBf | dfBf gfed |

ceAe ceAe | ceAe fedc | Bcde gfed | cABc A6 :|

 

DEVIL’S DREAM [2]. Scottish, Hornpipe. A Major. Standard tuning. AA’BB’. A curious and perhaps very distant variation of “Devil’s Dream [1]." Kerr (Merry Melodies), vol. 4; No. 270, pg. 29.

